src/images/pages/charting/light-charts.svg

<svg xmlns="http://www.w3.org/2000/svg" viewBox="0 0 200 200"><path fill="#F3F3F3" d="M1.429 1.429h197.143v197.143h-197.143z"/><path fill="#CDCCCC" d="M197.143 2.857v194.286h-194.286v-194.286h194.286m2.857-2.857h-200v200h200v-200z"/><g stroke="#CDCCCC" stroke-width="2" fill="none"><path d="M26.923 200v-200M56.539 200v-200M86.153 200v-200M115.769 200v-200M145.385 200v-200M175 200v-200"/></g><g stroke="#CDCCCC" stroke-width="2" fill="none"><path d="M0 25.961h200M0 55.578h200M0 85.192h200M0 114.808h200M0 144.424h200M0 174.039h200"/></g><g fill="none"><path stroke="#676767" stroke-width="2" d="M27.419 23.571v68.558"/><path stroke="#308742" stroke-width="9" d="M27.419 41.616v60"/><path stroke="#676767" stroke-width="2" d="M174.342 34.692v47.725"/><path stroke="#308742" stroke-width="9" d="M174.342 18.796v44.617"/><path stroke="#676767" stroke-width="2" d="M56.136 151.616v-33.589"/><path stroke="#EC2227" stroke-width="9" d="M56.136 87.259v34.358"/><path stroke="#676767" stroke-width="2" d="M86.394 59.821v70.803"/><path stroke="#EC2227" stroke-width="9" d="M86.394 77.259v34.358"/><path stroke="#676767" stroke-width="2" d="M115.111 29.565v47.694"/><path stroke="#308742" stroke-width="9" d="M115.111 46.999v34.361"/><path stroke="#676767" stroke-width="2" d="M144.342 74.34v105"/><path stroke="#EC2227" stroke-width="9" d="M144.342 98.283v54.101"/></g></svg>

<svg xmlns="http://www.w3.org/2000/svg" viewBox="0 0 200 200"><path fill="#F3F3F3" d="M1.43 1.43H198.57V198.57H1.43z"/><path fill="#CDCCCC" d="M197.143 2.857v194.286H2.857V2.857h194.286M200 0H0v200h200V0z"/><path d="M26.923 200V0M56.54 200V0m29.613 200V0m29.616 200V0m29.615 200V0M175 200V0M0 25.96h200M0 55.58h200M0 85.192h200M0 114.808h200M0 144.424h200M0 174.04h200" stroke="#CDCCCC" stroke-width="2" fill="none"/><g fill="none"><path stroke="#676767" stroke-width="2" d="M27.42 23.57v68.56"/><path stroke="#308742" stroke-width="9" d="M27.42 41.616v60"/><path stroke="#676767" stroke-width="2" d="M174.342 34.692v47.725"/><path stroke="#308742" stroke-width="9" d="M174.342 18.796v44.617"/><path stroke="#676767" stroke-width="2" d="M56.136 151.616v-33.59"/><path stroke="#EC2227" stroke-width="9" d="M56.136 87.26v34.357"/><path stroke="#676767" stroke-width="2" d="M86.394 59.82v70.804"/><path stroke="#EC2227" stroke-width="9" d="M86.394 77.26v34.357"/><path stroke="#676767" stroke-width="2" d="M115.11 29.565V77.26"/><path stroke="#308742" stroke-width="9" d="M115.11 47v34.36"/><path stroke="#676767" stroke-width="2" d="M144.342 74.34v105"/><path stroke="#EC2227" stroke-width="9" d="M144.342 98.283v54.1"/></g></svg>
